X: 1
T: the Pleasant Beggar  #1
R: reel
S: https://thesession.org/tunes/10898
S: https://www.youtube.com/watch?v=E60luhN-S_Q
M: 4/4
L: 1/8
K: D
A |\
d3d cdec | dfed cAAF | G3A B2 AG | FGAG FDD2 |\
d3d cded | dfed cdef | g2ag fded | cdAG FDD :|
|: E |\
FEFA d3e  | fded cdAF | G3A B3d  | gfed cdeg |\
fded cdfd | edcd AFED | B3c d2AG | FGAG FDD :|
